public/logo.svg

<svg fill="none" height="48" width="142" xmlns="http://www.w3.org/2000/svg"><g fill="#1800bd"><path d="m67.8725 30.6489c-.6885.9007-1.8015 1.3511-3.3391 1.3511-1.5377 0-2.6507-.4504-3.3392-1.3511-.6655-.9245-.9983-2.3111-.9983-4.16v-.5689c0-1.8489.3328-3.2237.9983-4.1244.6885-.9245 1.8015-1.3867 3.3392-1.3867 1.5376 0 2.6506.4622 3.3391 1.3867.6885.9007 1.0327 2.2755 1.0327 4.1244v.5689c0 1.8489-.3442 3.2355-1.0327 4.16z"/><path clip-rule="evenodd" d="m142 0h-119.5167l-22.4833 48h119.517zm-107.3004 9.84889h-4.7161v25.70671h4.7161zm8.1696 0h-4.7161v4.62221h4.7161zm0 7.00441h-4.7161v18.7023h4.7161zm1.388 3.9823h2.5818v14.72h4.7161v-14.72h3.2015v-3.9823h-3.2015v-1.7777c0-1.0193.4935-1.5289 1.4803-1.5289h1.7212v-3.4134c-.3901-.14219-.8721-.27256-1.4458-.39108-.5738-.11852-1.1016-.17778-1.5835-.17778-1.7442 0-2.9949.49776-3.7523 1.49336-.7573.9718-1.136 2.1926-1.136 3.6622v2.1333h-2.5818zm13.3569 12.7644c1.5146 1.5881 3.8211 2.3822 6.9193 2.3822 3.0981 0 5.4046-.7941 6.9192-2.3822 1.5376-1.5881 2.3065-4.0533 2.3065-7.3956 0-3.3422-.7689-5.8074-2.3065-7.3955-1.5146-1.5882-3.8211-2.3822-6.9192-2.3822-3.0982 0-5.4047.794-6.9193 2.3822-1.5147 1.5881-2.272 4.0533-2.272 7.3955 0 3.3423.7573 5.8075 2.272 7.3956zm22.5591-16.7467h-4.0276v18.7023h4.7161v-9.0312c0-1.754.3443-3.0577 1.0328-3.9111.6884-.877 1.8015-1.3155 3.3391-1.3155h1.3081v-4.5511c-.5278-.2134-1.1245-.32-1.79-.32-1.0098 0-1.8245.3081-2.4441.9244-.6197.6163-1.1246 1.4578-1.5147 2.5245h-.241zm12.0028 0h-4.0276v18.7023h4.7161v-10.8089c0-1.1378.2983-2.086.895-2.8445.6197-.7822 1.3885-1.1733 2.3065-1.1733 1.7671 0 2.6506 1.1022 2.6506 3.3067v11.52h4.7164v-10.8089c0-1.1378.298-2.086.895-2.8445.596-.7822 1.354-1.1733 2.272-1.1733 1.767 0 2.65 1.1022 2.65 3.3067v11.52h4.717v-12.5512c0-2.2992-.517-3.9703-1.55-5.0133-1.009-1.043-2.375-1.5644-4.096-1.5644-2.203 0-3.993.96-5.37 2.88h-.276c-.872-1.92-2.455-2.88-4.7501-2.88-2.1114 0-3.8326.96-5.1637 2.88h-.2409z" fill-rule="evenodd"/></g></svg>

<svg width="142" height="48" fill="none" xmlns="http://www.w3.org/2000/svg">
<path d="M67.8725 30.6489C67.184 31.5496 66.071 32 64.5334 32C62.9957 32 61.8827 31.5496 61.1942 30.6489C60.5287 29.7244 60.1959 28.3378 60.1959 26.4889V25.92C60.1959 24.0711 60.5287 22.6963 61.1942 21.7956C61.8827 20.8711 62.9957 20.4089 64.5334 20.4089C66.071 20.4089 67.184 20.8711 67.8725 21.7956C68.561 22.6963 68.9052 24.0711 68.9052 25.92V26.4889C68.9052 28.3378 68.561 29.7244 67.8725 30.6489Z" fill="#1800BD"/>
<path fill-rule="evenodd" clip-rule="evenodd" d="M142 0H22.4833L0 48H119.517L142 0ZM34.6996 9.84889H29.9835V35.5556H34.6996V9.84889ZM42.8692 9.84889H38.1531V14.4711H42.8692V9.84889ZM42.8692 16.8533H38.1531V35.5556H42.8692V16.8533ZM44.2572 20.8356H46.839V35.5556H51.5551V20.8356H54.7566V16.8533H51.5551V15.0756C51.5551 14.0563 52.0486 13.5467 53.0354 13.5467H54.7566V10.1333C54.3665 9.99111 53.8845 9.86074 53.3108 9.74222C52.737 9.6237 52.2092 9.56444 51.7273 9.56444C49.9831 9.56444 48.7324 10.0622 47.975 11.0578C47.2177 12.0296 46.839 13.2504 46.839 14.72V16.8533H44.2572V20.8356ZM57.6141 33.6C59.1287 35.1881 61.4352 35.9822 64.5334 35.9822C67.6315 35.9822 69.938 35.1881 71.4526 33.6C72.9902 32.0119 73.7591 29.5467 73.7591 26.2044C73.7591 22.8622 72.9902 20.397 71.4526 18.8089C69.938 17.2207 67.6315 16.4267 64.5334 16.4267C61.4352 16.4267 59.1287 17.2207 57.6141 18.8089C56.0994 20.397 55.3421 22.8622 55.3421 26.2044C55.3421 29.5467 56.0994 32.0119 57.6141 33.6ZM80.1732 16.8533H76.1456V35.5556H80.8617V26.5244C80.8617 24.7704 81.206 23.4667 81.8945 22.6133C82.5829 21.7363 83.696 21.2978 85.2336 21.2978H86.5417V16.7467C86.0139 16.5333 85.4172 16.4267 84.7517 16.4267C83.7419 16.4267 82.9272 16.7348 82.3076 17.3511C81.6879 17.9674 81.183 18.8089 80.7929 19.8756H80.5519L80.1732 16.8533ZM92.176 16.8533H88.1484V35.5556H92.8645V24.7467C92.8645 23.6089 93.1628 22.6607 93.7595 21.9022C94.3792 21.12 95.148 20.7289 96.066 20.7289C97.8331 20.7289 98.7166 21.8311 98.7166 24.0356V35.5556H103.433V24.7467C103.433 23.6089 103.731 22.6607 104.328 21.9022C104.924 21.12 105.682 20.7289 106.6 20.7289C108.367 20.7289 109.25 21.8311 109.25 24.0356V35.5556H113.967V23.0044C113.967 20.7052 113.45 19.0341 112.417 17.9911C111.408 16.9481 110.042 16.4267 108.321 16.4267C106.118 16.4267 104.328 17.3867 102.951 19.3067H102.675C101.803 17.3867 100.22 16.4267 97.9249 16.4267C95.8135 16.4267 94.0923 17.3867 92.7612 19.3067H92.5203L92.176 16.8533Z" fill="#1800BD"/>
</svg>
